X:1
T:Title
%%score { ( 1 3 ) | 2 }
L:1/8
M:6/8
K:G
V:1 treble nm="Grand Piano"
V:3 treble 
V:2 bass 
V:1
 z3 z2[Q:1/4=100] D | [B,G]2 [B,G] [B,G][CA][DB] | E2 E E2 E | [CA]2 [CA] AB[CA] |[M:5/8] D2 D D2 | %5
[M:1/8] D |[M:3/4] [B,G]2 [B,G][B,G] [CA][DB] |[M:7/8] [CE]2 [Ec] [Ec]3 [EA] | %8
[M:3/4] G2 GA- A/G/F | [B,DG]6 | d2 ed BG | B2 c B3 | d2 ed BG |[M:5/8] [DFA]2 [DGB] [DFA]2 | %14
[M:1/8] [CD]/[CD]/ |[M:3/4] [B,DG]2 [B,DG] [DGB]2 [B,DG]/[B,DG]/ | %16
[M:15/16] [CEA]->[CEA][D^GB][EAc]3/2- [EAc]3 |[M:3/4] [DGd]2 [Ge][Gd] [DGB][^CG] | %18
[M:5/8] [DGB]2 [CFA] [B,DG]2 |] %19
V:2
 z3 z2 D, | [G,,D,]2 [G,,D,] [G,,G,]2 [G,,G,] | [C,G,C]2 [C,G,C] [C,G,C]2 [C,E,C] | %3
 [A,,E,]2 [A,,E,] [A,,G,]2 [A,,G,] |[M:5/8] [D,F,A,]2 [D,G,B,] [D,A,C]2 |[M:1/8] [D,F,C] | %6
[M:3/4] [G,,D,]2 [G,,D,] [G,,G,]2 [G,,G,] |[M:7/8] [C,G,]2 [C,G,] [A,,A,]3 [C,A,] | %8
[M:3/4] [D,B,D]2 [D,B,D][D,CD]- [D,CD]/[D,B,D]/[D,A,D] | G,,6 | %10
 [G,B,G]2 [G,CG][G,B,G] [G,DG][G,B,D] | [G,DG]2 [G,EG] [G,DG]3 | %12
 [G,B,G]2 [G,CG][G,B,G] [G,DG][K:bass][G,B,D] |[M:5/8] D,2 G, D,2 |[M:1/8] D,/D,/ | %15
[M:3/4] G,,2 G,, G,2 G,/G,/ |[M:15/16] C,->C,B,,A,,3/2- A,,3 |[M:3/4] B,,2 [C,C][D,B,] D,E, | %18
[M:5/8] D,2 D, G,,2 |] %19
V:3
 x6 | x6 | x6 | z3 .C3 |[M:5/8] x5 |[M:1/8] x |[M:3/4] x6 |[M:7/8] x7 |[M:3/4] x6 | x6 | x6 | x6 | %12
 x6 |[M:5/8] x5 |[M:1/8] x |[M:3/4] x6 |[M:15/16] x15/2 |[M:3/4] x6 |[M:5/8] x5 |] %19

